X:7
T:Banks of Sweet Dundee,The. WHG.007
R:song
S:W.H.Giles MS,Bampton,Oxfordshire,1839p8
O:England
H:donated by Mrs W.R.Kettlewell to VWML,Apr 1927.
A:Bampton, Oxfordshire
N:In MS, A music ends d2, B music ends G2, bar 12 is |ed2 cA|.
Z:PJHeadford – VMP 2009
M:2/4
L:1/8
Q:1/4=100
K:G
|:G|cc ec|gg g e/d/|c B/A/ GG|G2 zg|
gg eg|f>e d c/B/|AA Bc|d3:|
|:g|gg eg|fd ec|cB gf|ed2 c/A/|
GG Bc|e>d d A/B/|c>B GG|G3:|

